polaris-icons/icons/newicons/CreditCardSecureMajor.svg

<svg width="20" height="20" viewBox="0 0 20 20" fill="none" xmlns="http://www.w3.org/2000/svg">
<path d="M2 6.75C2 5.23122 3.23122 4 4.75 4H15.25C16.7688 4 18 5.23122 18 6.75V7C18 7.41421 17.6642 7.75 17.25 7.75C16.8358 7.75 16.5 7.41421 16.5 7V6.75C16.5 6.05964 15.9404 5.5 15.25 5.5H4.75C4.05964 5.5 3.5 6.05964 3.5 6.75V7.5H10.75C11.1642 7.5 11.5 7.83579 11.5 8.25C11.5 8.66421 11.1642 9 10.75 9H3.5V13.25C3.5 13.9404 4.05964 14.5 4.75 14.5H9.25C9.66421 14.5 10 14.8358 10 15.25C10 15.6642 9.66421 16 9.25 16H4.75C3.23122 16 2 14.7688 2 13.25V6.75Z" fill="black"/>
<path d="M5.75 11.5C5.33579 11.5 5 11.8358 5 12.25C5 12.6642 5.33579 13 5.75 13H7.75C8.16421 13 8.5 12.6642 8.5 12.25C8.5 11.8358 8.16421 11.5 7.75 11.5H5.75Z" fill="black"/>
<path fill-rule="evenodd" clip-rule="evenodd" d="M13 12C12.4477 12 12 12.4477 12 13V16C12 16.5523 12.4477 17 13 17H18C18.5523 17 19 16.5523 19 16V13C19 12.4477 18.5523 12 18 12V11C18 9.89543 17.1046 9 16 9H15C13.8954 9 13 9.89543 13 11V12ZM16 10.5H15C14.7239 10.5 14.5 10.7239 14.5 11V12H16.5V11C16.5 10.7239 16.2761 10.5 16 10.5Z" fill="black"/>
</svg>

<svg viewBox="0 0 20 20" fill="none" xmlns="http://www.w3.org/2000/svg"><path d="M2 6.75a2.75 2.75 0 0 1 2.75-2.75h10.5a2.75 2.75 0 0 1 2.75 2.75v.25a.75.75 0 0 1-1.5 0v-.25c0-.69-.56-1.25-1.25-1.25h-10.5c-.69 0-1.25.56-1.25 1.25v.75h7.25a.75.75 0 0 1 0 1.5h-7.25v4.25c0 .69.56 1.25 1.25 1.25h4.5a.75.75 0 0 1 0 1.5h-4.5a2.75 2.75 0 0 1-2.75-2.75v-6.5Z" fill="#000"/><path d="M5.75 11.5a.75.75 0 0 0 0 1.5h2a.75.75 0 0 0 0-1.5h-2Z" fill="#000"/><path fill-rule="evenodd" clip-rule="evenodd" d="M13 12a1 1 0 0 0-1 1v3a1 1 0 0 0 1 1h5a1 1 0 0 0 1-1v-3a1 1 0 0 0-1-1v-1a2 2 0 0 0-2-2h-1a2 2 0 0 0-2 2v1Zm3-1.5h-1a.5.5 0 0 0-.5.5v1h2v-1a.5.5 0 0 0-.5-.5Z" fill="#000"/></svg>
